X:11701
T:Donnybrook Fair
R:Jig
B:Tuneworks Tunebook (https://www.tuneworks.co.uk/)
G:tuneworks
Z:Jon Warbrick <jon.warbrick@googlemail.com>
M:6/8
L:1/8
K:G
|: "G"GFG AGA | Bee dBA | "C"BAB GAB | "D"AGE EDE | 
"G"GFG AGA | "Em"Bee dBA | "C"BAB GAB | "D"AGF "G"G3 :|
|: "Em"gfe fed | "Bm"ege dBA | "C"Bee dBA | "D"Bee e2f | [1 "Em"gfe fed | "Bm"ege dBA |
"C"BAB GAB | "D"AGF "G"G2 f :| [2 "Em"gfg aga | bge dBA | "C"BAB GAB | "D"AGF "G"G3 |]